X: 28018
T: Moving Cloud, The
R: reel
M: 4/4
K: Gmajor
|:DGBG EGcG|DGBG AGEG|c3A (3Bcd gb|aged BAGE|
DGBG EGcG|DGBG AGEG|cBAc BAGB|ADEF G3z:|
|:D2 BD ADGD|D2 BD ADGD|E2 cE BEAE|E2 cE BEAE|
D2 BD ADGD|D2 BD ADGD|cBAc BAGB|ADEF G3z:|
|:Bd d2 ed d2|Bd d2 edcB|ce e2 fe e2|fefe fedc
Bd d2 ed d2|Bd d2 edcB|cBAc BAGB|ADEF G3z:|

